X:1
T:Title
%%score ( 1 2 ) ( 3 4 )
L:1/8
Q:1/4=90
M:4/4
K:F
V:1 treble nm="Strings 1, Soprano"
V:2 treble 
V:3 bass nm="Strings 1, Bass"
V:4 bass 
V:1
 [FA]2 [FA]2 [FA]2 GA | [Fc]3 [Fd] [Fc]2 [FA]2 | [FA]3 [FA] [FA][FA][CG][CF] | [EG]6 z2 | %4
w: 1.~Life~ on~ earth~ is~ *|but~ a~ va por,~|Soon~ we'll~ lay~ these~ bod ies~|down;~|
 [EG]2 [FA]2 [GB][GB][FA][EB] | [Fc]4 [Fd]2 [Fc][FA] | [FA]2 [CG]2 [FA]2 [F=B]2 | [Ec]6 z2 | %8
w: But~ if~ we~ con tin ue~|faith ful,~ We~ shall~|wear~ the~ vic tor's~|crown�~|
 [Fc][Fc][Fc][Fc] [Fd]2 [Fc]2 | [Fc]4 [EB]2 z2 | [EB][EB][EB][EB] [Ec]2 [EG]2 | [FA]6 z2 | %12
w: Bright er~ than~ the~ stars~ of~|heav en,~|Bright er~ than~ the~ dazz ling~|sun,~|
 [FA][FA][FA][FA] [FB]2 [Fc]2 | [Fd]4 [Fc]2 [EB][EB] | [FA]2 [DG]2 [CF]2 [CE]2 | [CF]6 z2 |] %16
w: We~ shall~ shine~ a mong~ the~|ran somed,~ When~ our~|work~ on~ earth~ is~|done.~|
V:2
 z4 z2 F2 | x8 | x8 | x8 | x8 | x8 | x8 | x8 | x8 | x8 | x8 | x8 | x8 | x8 | x8 | x8 |] %16
V:3
 [F,C]2 [F,C]2 [F,C]2 =B,C | [F,A,]3 [F,B,] [F,A,]2 [F,C]2 | [F,C]3 [F,C] [F,C][F,C][F,B,][F,A,] | %3
 [C,C]6 z2 | [C,C]2 [C,C]2 [C,C][C,C][C,C][C,G,] | [F,A,]4 [F,B,]2 [F,A,][F,C] | %6
 [F,C]2 [E,C]2 [D,=B,]2 G,2 | [C,G,]6 z2 | [F,A,][F,A,][F,A,][F,A,] [F,B,]2 [F,A,]2 | %9
 [C,A,]4 [C,G,]2 z2 | [C,G,][C,G,][C,G,][C,G,] [C,G,]2 [C,C]2 | [F,C]6 z2 | %12
 [F,C][F,C][F,C][_E,C] [D,B,]2 [C,A,]2 | [B,,B,]4 [A,,C]2 [G,,C][G,,C] | %14
 [A,,C]2 [B,,B,]2 [C,A,]2 [C,G,]2 | [F,,F,A,]6 z2 |] %16
V:4
 z4 z2 F,2 | x8 | x8 | x8 | x8 | x8 | x8 | x8 | x8 | x8 | x8 | x8 | x8 | x8 | x8 | x8 |] %16

